X: 1
T: String Quartet in C Major opus 64 no 1 mvt 4
C: Franz Joseph Haydn
%%abc-version 2.0
%%abcx-abcm2ps-target-version 5.9.1 (29 Sep 2008)
%%abc-creator hum2abc beta
%%abcx-conversion-date 2021/02/14 14:38:13
%%abc-copyright Copyright (c) 1994, 2000 Center for Computer Assisted Research in the Humanities
%%abc-edited-by Walter Hewlett
%%abcx-initial-encoding-date 1994/11/13
%%gracespace 0 6 6
%%humdrum-veritas 3042046214
%%humdrum-veritas-data 1840753760
%%linebreak <none>
%%barnumbers 0
L: 1/8
M: 6/8
N: Derived from op64n1-04.krn
Q: "Finale: Presto"
%%staves [1 2 3 4]
V: 1 clef=treble
V: 2 clef=treble
V: 3 clef=alto
V: 4 clef=bass
K: C
[V:1].cx4x[I:setbarnb1]|
[V:2]Ex4x|
[V:3]Cx4x|
[V:4]zx4x|
[V:1].cz.c .cz.c/.c/ |
[V:2]EzF GzA/A/ |
[V:3]CzD EzF/F/ |
[V:4]z6 |
[V:1].c.B.A .Gz.F |
[V:2]GFE DzD |
[V:3]EDC B,zB, |
[V:4]z2z z2G,, |
[V:1]F2E DFA |
[V:2]D2C A,3 |
[V:3]B,2C A,D,F, |
[V:4]G,,2A,, F,,3 |
[V:1]C2>B,2 z.c |
[V:2]G,zz z2E |
[V:3]E,2>D,2 zC |
[V:4]G,,2>-G,,2 zz |
[V:1].cz.c .cz.c/.c/ |
[V:2]EzF GzA/A/ |
[V:3]CzD EzF/F/ |
[V:4]z6 |
[V:1].c.B.A .Gz.F |
[V:2]GFE DzD |
[V:3]EDC B,zB, |
[V:4]z2z z2G,, |
[V:1]F2E DFA |
[V:2]D2C C3 |
[V:3]B,2C A,D,F, |
[V:4]G,,2A,, F,,3 |
[V:1]C2E/D/ Cz^f/g/ |
[V:2]C2B, CEE |
[V:3]E,2F, E,EE |
[V:4]G,,2>C,,2 C,C, |
[V:1]a/g/=f/.e/.d/.c/ B/A/G/.F/.E/.D/ |
[V:2][F6G,6] |
[V:3][D6B,6] |
[V:4]C,,C,C,, C,C,,C,, |
[V:1].C.E.G .c.e^f/g/ |
[V:2][EG,]z[EG,] [EG,]z[EG,] |
[V:3][EC]zC CzE |
[V:4]C,,C,C,, C,C,,C,, |
[V:1]a/g/=f/.e/.d/.c/ B/A/G/.F/.E/.D/ |
[V:2][F6G,6] |
[V:3][D6B,6] |
[V:4]C,,C,C,, C,C,,C,, |
[V:1].C.E.G .c.e^g/a/ |
[V:2][EG,]z[EG,] [EG,]zE |
[V:3][EC]zC Czz |
[V:4]C,,C,C,, C,C,,C,, |
[V:1]b/a/c'/.b/.a/.=g/ ^f/e/d/.c/.B/.A/ |
[V:2][A3E3] [A3D3] |
[V:3]E3 ^F3 |
[V:4]C,,C,C,, C,C,,C, |
[V:1].G.B.d .g.b.d' |
[V:2][B2G2]z z2A/B/ |
[V:3]G2z z2^F/G/ |
[V:4]B,,2z z2z |
[V:1].d'z.d' .d'z.d'/.d'/ |
[V:2]c/B/d/c/B/A/ G/^F/E/D/C/B,/ |
[V:3]A/G/B/A/G/^F/ E/D/C/B,/A,/G,/ |
[V:4]z2z z2G,, |
[V:1]d'c'.c' c'^ab |
[V:2]G3 ^F3 |
[V:3]E2>D2 zz |
[V:4]E,/^F,/G,/A,/B,/C/ D,^CD |
[V:1]b=a.a a^fg |
[V:2]E3 D2d/B/ |
[V:3]C2>B,2 zz |
[V:4]C,/D,/E,/^F,/G,/A,/ B,,^A,B, |
[V:1]g/^f/a/g/b/a/ .g.g.g |
[V:2]A2>-A2 AA |
[V:3]EEE E/^D/^F/E/G/F/ |
[V:4]C2>-C2 CC |
[V:1]g/^f/a/g/b/a/ .g.g.g |
[V:2]A2>-A2 AA |
[V:3]EEE E/^D/^F/E/G/F/ |
[V:4]^C2>-C2 CC |
[V:1]g/^f/a/g/_b/a/ .g.g.g |
[V:2]_B2>-B2 BB |
[V:3]EEE E/^D/^F/E/G/E/ |
[V:4]^C2>-C2 CC |
[V:1].^f.f.f .f.f.f |
[V:2]A/B/c/B/c/B/ ccc |
[V:3]^F/G/A/^G/A/G/ AAA |
[V:4]D3 D/_E/D/E/D/E/ |
[V:1]^fzz z2d'/c'/ |
[V:2]czz z2D |
[V:3]Azz z2B, |
[V:4]Dzz z2G,, |
[V:1]=b/a/g/.^f/.=e/.d/ c/B/A/.G/.^F/.E/ |
[V:2]DzD DzD/D/ |
[V:3]B,zB, B,zB,/B,/ |
[V:4]G,,zG,, G,,zG,,/G,,/ |
[V:1].D.^F.A .czc'/b/ |
[V:2]DzD D/^F/A/B/A/G/ |
[V:3]C/D/C/B,/A,/G,/ ^F,zD |
[V:4]A,,/B,,/A,,/G,,/^F,,/E,,/ D,,zD, |
[V:1]a/g/^f/.e/.d/.c/ B/A/G/.^F/.E/.D/ |
[V:2]^Fz[FA,] [FA,]z[F/A,/][F/A,/]|
[V:3]DzC CzC/A,/ |
[V:4]D,zD, D,zD,/D,/ |
[V:1]CB,.^F G2.^f/.g/ |
[V:2][GG,]zz z2z |
[V:3]G,2z z2z |
[V:4]E,2z z2z |
[V:1]a/g/b/g/.^d/.e/ ^f/e/g/e/.B/.c/ |
[V:2]ddz BBz |
[V:3]BBz GGz |
[V:4]z6 |
[V:1]=d/c/e/c/.^G/.A/ c/B/d/c/e/d/ |
[V:2]GGz z2z |
[V:3]EEz z2z |
[V:4]z2z ^G,A,B, |
[V:1]=f/e/d/c/B/A/ f/e/d/c/B/A/ |
[V:2]z2z A,2z |
[V:3]z2z E,^G,A, |
[V:4]Czz C,2z |
[V:1]G2B/A/ Gz.D |
[V:2]D2C B,zz |
[V:3]B,G,^F, G,zz |
[V:4]D,2>G,,2 zz |
[V:1].D.G.B .E.A.c |
[V:2]z6 |
[V:3]zB,G, zCA, |
[V:4]B,,2z C,2z |
[V:1].^F.A.d e/d/c/B/A/G/ |
[V:2]z2z z2D |
[V:3]z^Fc Bzz |
[V:4]D,2z G,,2z |
[V:1].G.g.g a/g/^f/e/d/c/ |
[V:2]Eee ed/c/B/A/ |
[V:3]z6 |
[V:4]C,2z z2z |
[V:1]B>c.A .Gzz |
[V:2]G>A^F GzD |
[V:3]zDC B,Bz |
[V:4]D,D,D, G,,G,z |
[V:1]z.d'.d' d'c'.c' |
[V:2]DGB EAc |
[V:3]zB,G, zCA, |
[V:4]B,,2z C,2z |
[V:1]d'/c'/b/a/g/^f/ .gz.G |
[V:2]^FAd dc/B/A/G/ |
[V:3]z^Fc Bzz |
[V:4]D,2z G,,2z |
[V:1].G.g.g a/g/^f/e/d/c/ |
[V:2]Eee ed/c/B/A/ |
[V:3]z6 |
[V:4]C,2z C2z |
[V:1]B>c.A .Gz.g |
[V:2]G>A^F GzB |
[V:3]zDC B,zG |
[V:4]D2D, G,G,,z |
[V:1].gz.g .gz.g/.g/ |
[V:2]cz^c dze/e/ |
[V:3]Az^A Bz^c |
[V:4]zG,,z zG,,z |
[V:1].g.g.g .gz:|]
[V:2]fff fz:|]
[V:3]ddd dz:|]
[V:4]G,,/B,,/D,/C,/B,,/A,,/ G,,z:|]
[V:1].gx4x[I:setbarnb41] |
[V:2][fd]x4x|
[V:3]Bx4x|
[V:4]zx4x|
[V:1]g/b/d'/.c'/.b/.a/ .gzz |
[V:2][fd][fd][fd] [fd]zz |
[V:3]BBB Bzz |
[V:4]z6 |
[V:1]z6 |
[V:2]z6 |
[V:3]z6 |
[V:4]z2z z2_A,, |
[V:1]z6 |
[V:2]z6 |
[V:3]z2_E, E,zE, |
[V:4]_A,,zA,, A,,zA,,/A,,/ |
[V:1]z6 |
[V:2]z6 |
[V:3]_E,zE,/E,/ E,D,=E, |
[V:4]_A,,G,,=A,, _B,,zB,,/B,,/ |
[V:1]z6 |
[V:2]z2z z2D |
[V:3]F,zF,/F,/ F,E,^F, |
[V:4]_B,,A,,=B,, C,zC,/C,/ |
[V:1]z6 |
[V:2]DzD DzD/D/ |
[V:3]G,zC/C/ C_B,A, |
[V:4]C,_B,,A,, G,,2F,, |
[V:1]zz.A .Az.A |
[V:2]D^CD EzE/E/ |
[V:3]G,2F, E,A,G, |
[V:4]E,,2D,, ^C,,2^C, |
[V:1]Az.A/.A/ A^G.A |
[V:2]EDC B,2A, |
[V:3]G,F,E D2C |
[V:4]D,2z z2F/F/ |
[V:1].Bz.B/.B/ BA.B |
[V:2]^G,3 A,2z |
[V:3]B,3 C2B,/A,/ |
[V:4]FED CA,G,/F,/ |
[V:1]cB.c .dz.d/.d/ |
[V:2]z2c/c/ cBA |
[V:3]G,F,E, D,zG,/A,/ |
[V:4]E,D,C, G,,2z |
[V:1]dc.d ed.e |
[V:2]G6 |
[V:3]B,A,B, CB,_B, |
[V:4]z2z z2C,/C,/ |
[V:1].fz.f .fz.f/.f/ |
[V:2]C2z z2g |
[V:3]A,/_B,/C/A,/B,/C/ D/C/D/B,/C/D/ |
[V:4]F,/G,/A,/F,/G,/A,/ _B,/A,/B,/G,/A,/=B,/ |
[V:1].f.e.d .cz.a |
[V:2]gzg gzg/g/ |
[V:3]G,2z zCE |
[V:4]C/B,/C/C,/C/D/ E/D/E/D/^C/A,/ |
[V:1].az.a/.a/ .a.g.f |
[V:2]gfe dz_b/b/ |
[V:3]Dz/F/G/A/ _B/A/B/B/c/d/ |
[V:4]D/^C/D/D,/E,/F,/ G,/^F,/G,/G,,/A,,/_B,,/ |
[V:1].ez.c'/.c'/ .c'.ag/f/ |
[V:2]_bag afe/d/ |
[V:3]GA_B A2=B |
[V:4]C,/B,,/C,/C,,/E,/C,/ F,/E,/F,/F,,/G,,/G,/ |
[V:1].e.g.g z.g.g |
[V:2]e^D/E/G/E/ zD/E/G/E/ |
[V:3]czE EzE/E/ |
[V:4]C,zC CzC/C/ |
[V:1]z.g/.g/.g .g.f.e |
[V:2]z6 |
[V:3]EDC B,zF |
[V:4]CB,A, G,zD |
[V:1].d.a.a z.a.a |
[V:2]zE/F/A/F/ zE/F/A/F/ |
[V:3]FzF FzF/F/ |
[V:4]DzD DzD/D/ |
[V:1]z.a/.a/.a .a.g.f |
[V:2]z2z z2c |
[V:3]FED CzA |
[V:4]DCB, A,zz |
[V:1].ez.e .ez.e/.e/ |
[V:2]czc czc/c/ |
[V:3]AzA AzA,/A,/ |
[V:4]zF,F, zF,F, |
[V:1].^d.d.d .ez.f |
[V:2]cBA ^Gzd |
[V:3]A,/^G,/A,/B,/C/A,/ B,2^A,/B,/ |
[V:4]zF,/F,/F, E,3 |
[V:1].fz.f .fze/f/ |
[V:2]dzd dzz |
[V:3]^A,/B,/D/B,/A,/B,/ A,/B,/D/B,/z |
[V:4]E,2>-E,2 zz |
[V:1]e/f/b/f/e/f/ e/f/b/f/.f |
[V:2]dzd dzd |
[V:3][B^G]z[BG] [BG]z^A,/B,/ |
[V:4]z6 |
[V:1].fz.f .fz^d/e/ |
[V:2]dzd dzz |
[V:3]^A,/B,/D/B,/A,/B,/ A,/B,/D/B,/z |
[V:4]E,2>-E,2 zz |
[V:1]^d/e/=d'/e/d/e/ d/e/=d'/e/.^g/.a/ |
[V:2]dzd dz^G/A/ |
[V:3][=B^G]z[BG] [BG]zz |
[V:4]z6 |
[V:1]^g/a/c'/a/.e/.f/ e/f/a/f/.^c/.d/ |
[V:2]^G/A/c/A/E/F/ E/F/A/F/^c/d/ |
[V:3]z2z z2^C/D/ |
[V:4]z2z z2^C/D/ |
[V:1]^c/d/f/d/.^A/.B/ A/B/d/B/.^G/.=A/ |
[V:2]^c/d/f/d/^A/B/ A/B/d/B/^G/=A/ |
[V:3]^C/D/F/D/^A,/B,/ A,/B,/D/B,/^G,/=A,/ |
[V:4]^C/D/F/D/^A,/B,/ A,/B,/D/B,/^G,/=A,/ |
[V:1]^G/A/c/A/.E/.C/ .F/.D/.E/.C/.D/.B,/ |
[V:2]^G/A/c/A/E/C/ F/D/E/C/D/B,/ |
[V:3]^G,/A,/C/A,/E/C/ F/D/E/C/D/B,/ |
[V:4]^G,/A,/C/A,/E,/C,/ F,/D,/E,/C,/D,/B,,/ |
[V:1]A,6 |
[V:2]A,6 |
[V:3]A,6 |
[V:4]A,,6 |
[V:1]._B,z.B, .B,z.B,/.B,/ |
[V:2]G,zG, G,zG,/G,/ |
[V:3]C,zC, C,zC,/C,/ |
[V:4]E,,zE,, E,,zE,,/E,,/ |
[V:1]_B,A,^C DEF |
[V:2]G,A,_B, A,^CD |
[V:3]C,2G, A,G,F, |
[V:4]F,,2E,, F,,E,,D,, |
[V:1]E2>D2 z.=c |
[V:2]C2>B,2 zE |
[V:3]G,2>-G,2 zC |
[V:4]G,,2>-G,,2 zz |
[V:1].cz.c .cz.c/.c/ |
[V:2]EzF GzA/A/ |
[V:3]CzD EzF/F/ |
[V:4]z6 |
[V:1].c.B.A .Gz.F |
[V:2]GFE DzD |
[V:3]EDC B,zB, |
[V:4]z2z z2G,, |
[V:1]F2E DFA |
[V:2]D2C A,3 |
[V:3]B,2C A,D,F, |
[V:4]G,,2A,, F,,3 |
[V:1]C2>B,2 zB/c/ |
[V:2]G,zz z2E |
[V:3]E,2>D,2 zC |
[V:4]G,,2>-G,,2 zz |
[V:1]B/c/e/c/B/c/ B/c/e/c/B/c/ |
[V:2]EzF GzA/A/ |
[V:3]CzD EzF/F/ |
[V:4]z6 |
[V:1]d/c/c/B/B/A/ A/G/^F/G/E/=F/ |
[V:2]GFE DzD |
[V:3]EDC B,zB, |
[V:4]z2z z2G,, |
[V:1]E/F/A/F/^D/E/ ^C/=D/E/F/G/A/ |
[V:2]D2C C3 |
[V:3]B,2C A,D,F, |
[V:4]G,,2A,, F,,3 |
[V:1]=C2E/D/ Cz^f/g/ |
[V:2]C2B, CEE |
[V:3]E,2F, E,EE |
[V:4]G,,2>C,,2 C,C, |
[V:1]a/g/=f/.e/.d/.c/ B/A/G/.F/.E/.D/ |
[V:2][F6G,6] |
[V:3][D6B,6] |
[V:4]C,,C,C,, C,C,,C,, |
[V:1].C.E.G .c.e^f/g/ |
[V:2][EG,]z[EG,] [EG,]z[EG,] |
[V:3][EC]zC CzE |
[V:4]C,,C,C,, C,C,,C,, |
[V:1]a/g/=f/.e/.d/.c/ B/A/G/.F/.E/.D/ |
[V:2][F6G,6] |
[V:3][D6B,6] |
[V:4]C,,C,C,, C,C,,C,, |
[V:1].C.E.G .c.eg/a/ |
[V:2][EG,]z[EG,] [EG,]z[E_B,] |
[V:3][EC]zE EzE |
[V:4]C,,C,C,, C,C,,C,, |
[V:1]_b/a/g/.f/.e/.d/ c/_B/A/.G/.F/.E/ |
[V:2][=E6_B,6] |
[V:3]G6 |
[V:4]C,,C,C,, C,C,,C,, |
[V:1].F.A.c .f.a.c' |
[V:2][FA,]zz z2G/A/ |
[V:3]Azz z2E/F/ |
[V:4]F,,2z z2z |
[V:1].c'z.c' .c'z.c'/.c'/ |
[V:2]_B/A/c/B/A/G/ F/E/D/C/_B,/A,/ |
[V:3]G/F/A/G/F/E/ D/C/_B,/A,/G,/F,/ |
[V:4]z2z z2F,, |
[V:1]c'_b.b b^ga |
[V:2]F3 E3 |
[V:3]D2>C2 zz |
[V:4]D,/E,/F,/G,/A,/_B,/ C,=B,C |
[V:1]a=g.g gef |
[V:2]D2>C2 zz |
[V:3]_B,2>A,2 zz |
[V:4]_B,,/C,/D,/E,/F,/G,/ A,,^G,A, |
[V:1]f/g/a/.=b/.c'/.d'/ e/f/g/.a/.b/.c'/ |
[V:2][D3B,3] [E3C3] |
[V:3]F2D E3 |
[V:4]G,,6- |
[V:1]A/B/c/.d/.e/.^f/ gzg/=f/ |
[V:2][^F2A,2]A GzE |
[V:3]C2>B,2 zG, |
[V:4]G,,2>-G,,2 zC, |
[V:1]e/d/c/.B/.A/.G/ F/E/D/.C/.B,/.A,/ |
[V:2]EzE EzE/E/ |
[V:3]G,zG, G,zG,/G,/ |
[V:4]C,zC, C,zC,/C,/ |
[V:1].G,.B,.D .FzG,/A,/ |
[V:2]F/G/F/E/D/C/ B,zB,/C/ |
[V:3]G,zG, G,/B,/D/E/D/C/ |
[V:4]D,/E,/D,/C,/B,,/A,,/ G,,zG,, |
[V:1]B,/C/D/.E/.F/.G/ F/B/d/.f/.a/.f/ |
[V:2]DzD DzB,/B,/ |
[V:3]B,zB, B,zD/D/ |
[V:4]G,,zG,, G,,zG,,/G,,/ |
[V:1]fe.b .c'z.b/.c'/ |
[V:2]C2z z2z |
[V:3]C2z z2z |
[V:4]A,,2z A,2z |
[V:1]b/c'/e'/c'/.^g/.a/ g/a/c'/a/.e/.f/ |
[V:2]ggz eez |
[V:3]eez ccz |
[V:4]z6 |
[V:1]e/f/a/f/.^c/.d/ f/e/=g/f/a/g/ |
[V:2]ccz z2z |
[V:3]AAz ^CDE |
[V:4]z6 |
[V:1]_b/a/g/f/e/d/ =c=B.a |
[V:2]z2z z2f |
[V:3]FzF ED^C/D/ |
[V:4]z2F,, G,,2G,, |
[V:1].az.a .az.a/.a/ |
[V:2]fzf fzf/f/ |
[V:3]^C/D/F/D/C/D/ C/D/F/D/C/D/ |
[V:4]G,,6- |
[V:1]agf edf |
[V:2]fed cAA/F/ |
[V:3]D/E/F/G/A/B/ czD |
[V:4]G,,2>A,,2 F,,F,, |
[V:1]c2e/d/ .cz.A |
[V:2]E2F EzF |
[V:3]C2B, Cz^C,/D,/ |
[V:4]G,,2>C,2 zG,, |
[V:1].Az.A .Az.A/.A/ |
[V:2]FzF FzF/F/ |
[V:3]^C,/D,/F,/D,/C,/D,/ C,/D,/F,/D,/C,/D,/ |
[V:4]G,,6- |
[V:1]AGF EDF |
[V:2]FED CDD |
[V:3]D,/E,/F,/G,/A,/B,/ CzA, |
[V:4]G,,2>A,,2 F,,F,, |
[V:1]C2E/D/ .Cz.c |
[V:2]C2B, CzE |
[V:3]E,2F, E,z_B, |
[V:4]G,,2>C,2 zC, |
[V:1].cz.c .cz.c/.c/ |
[V:2]EzF FzA/A/ |
[V:3]_B,zA, A,zF,/F,/ |
[V:4]C,zC, C,zC,/C,/ |
[V:1].c.B.A .Gz.E |
[V:2]AGF Ez_B, |
[V:3]F,/E,/F,/G,/A,/B,/ CzG, |
[V:4]C,C,C, C,zC,, |
[V:1].Ez.F .Fz.F/.F/ |
[V:2]_B,zA, A,z=B,/B,/ |
[V:3]G,zF, F,zD,/D,/ |
[V:4]C,,zC,, C,,zC,,/C,,/ |
[V:1].F.E.D .Czz |
[V:2]B,2>C2 zz |
[V:3]D,/^C,/D,/E,/F,/G,/ E,zz |
[V:4]C,,C,,C,, C,,zz |
[V:1]D/^C/D/.F/.E/.D/ .=Czz |
[V:2]B,2>C2 zz |
[V:3]F,2>E,2 zz |
[V:4]C,,2>-C,,2 zz |
[V:1]B,2>C2 z|]
[V:2]D2>E2 z|]
[V:3]F,/E,/F,/A,/G,/F,/ E,z|]
[V:4]C,,2>-C,,2 z|]

